!!!CDT:
!!!PTL: Il primo libro de madrigali a cinque voci
!!!PPP: Rome
!!!PPR: Lugii Zanetti
!!!PDT: 1605
!!!RISM: C 2212
!!!rime:
!!!AGN: Madrigal
!!!SCT: Tsg12098c
!!!SCA: Tsg12098c
!!!voices:
!!!COM: Cifra, Antonio
!!!OTL: Dalli lor tu, ché se mai gli occhi gira
**kern	**text	**kern	**text	**kern	**text	**kern	**text	**kern	**text
*part5	*part5	*part4	*part4	*part3	*part3	*part2	*part2	*part1	*part1
*staff5	*staff5	*staff4	*staff4	*staff3	*staff3	*staff2	*staff2	*staff1	*staff1
*I"Basso	*	*I"Tenore	*	*I"Alto	*	*I"Quinto	*	*I"Canto	*
*I'B	*	*I'T	*	*I'A	*	*I'V	*	*I'C	*
*oclefF4	*	*oclefC4	*	*oclefC3	*	*oclefC1	*	*oclefC1	*
*clefF4	*	*clefGv2	*	*clefGv2	*	*clefG2	*	*clefG2	*
*k[b-]	*	*k[b-]	*	*k[b-]	*	*k[b-]	*	*k[b-]	*
*F:	*	*F:	*	*F:	*	*F:	*	*F:	*
*omet(C)	*	*omet(C)	*	*omet(C)	*	*omet(C)	*	*omet(C)	*
*M4/2	*	*M4/2	*	*M4/2	*	*M4/2	*	*M4/2	*
=1	=1	=1	=1	=1	=1	=1	=1	=1	=1
!!LO:TX:a:t=[Canzone.] Terza parte.
0r	.	0r	.	1r	.	0r	.	2f	Da-
.	.	.	.	.	.	.	.	4f	-gli
.	.	.	.	.	.	.	.	4f	lor
.	.	.	.	2r	.	.	.	2f	tu,
.	.	.	.	4r	.	.	.	2f	ché
.	.	.	.	4F	ché	.	.	.	.
=2	=2	=2	=2	=2	=2	=2	=2	=2	=2
0r	.	4r	.	4B-y	se	0r	.	2f	se
.	.	4F	ché	4c	mai	.	.	.	.
.	.	4B-y	se	4d	gl'oc-	.	.	2f	mai
.	.	4c	mai	4A	-chi	.	.	.	.
.	.	4d	gl'oc-	4B-y	gi-	.	.	2f	gl'oc-
.	.	4A	-chi	4c	.	.	.	.	.
.	.	8B-yL	gi-	8dL	.	.	.	2f	-chi
.	.	8cJ	.	8e	.	.	.	.	.
.	.	4d	.	8f	.	.	.	.	.
.	.	.	.	8dJ	.	.	.	.	.
=3	=3	=3	=3	=3	=3	=3	=3	=3	=3
1r	.	0c	-ra,	4.e	.	1r	.	4.g	gi-
.	.	.	.	8d	.	.	.	8f	.
.	.	.	.	8eL	.	.	.	8gL	.
.	.	.	.	8d	.	.	.	8f	.
.	.	.	.	8e	.	.	.	8g	.
.	.	.	.	8fJ	.	.	.	8aJ	.
2r	.	.	.	2e	.	2cc	Da-	2g	.
2F	Da-	.	.	2f	-ra,	4cc	-gli	2a	-ra,
.	.	.	.	.	.	4cc	lor	.	.
=4	=4	=4	=4	=4	=4	=4	=4	=4	=4
4F	-gli	1r	.	2c	Da-	2cc	tu,	2a	Da-
4F	lor	.	.	.	.	.	.	.	.
2F	tu,	.	.	4c	-gli	2f	ché	4a	-gli
.	.	.	.	4c	lor	.	.	4a	lor
1r	.	2r	.	2c	tu,	4e	se	4g	tu,
.	.	.	.	.	.	4f	mai	4f	ché
.	.	4r	.	2c	ché	4g	gl'oc-	4e	se
.	.	4C	<ché	.	.	4e	-chi	4g	mai
=5	=5	=5	=5	=5	=5	=5	=5	=5	=5
4r	.	4F	se	2c	se	4f	gi-	4a	gl'oc-
4C	ché	4G	mai	.	.	4e	-ra	4g	-chi
4F	se	4A	gl'oc-	2c	mai	2r	.	4f	gi-
4G	mai	4E	-chi	.	.	.	.	4c	-ra
4A	gl'oc-	4F	gi-	2c	gl'oc-	1r	.	1r	.
4E	-chi	4G	.	.	.	.	.	.	.
8FL	gi-	8AL	.	2c	-chi	.	.	.	.
8GJ	.	8B-y	.	.	.	.	.	.	.
4A	.	8c	.	.	.	.	.	.	.
.	.	8AJ	.	.	.	.	.	.	.
=6	=6	=6	=6	=6	=6	=6	=6	=6	=6
0G	-ra	4.BnX	.	4.d	gi-	0r	.	0r	.
.	.	8A	.	8c	.	.	.	.	.
.	.	8BniL	.	8dL	.	.	.	.	.
.	.	8A	.	8c	.	.	.	.	.
.	.	8Bni	.	8d	.	.	.	.	.
.	.	8cJ	.	8eJ	.	.	.	.	.
.	.	2BnX	.	2d	.	.	.	.	.
.	.	2Bni	-ra>	2d	-ra	.	.	.	.
=7	=7	=7	=7	=7	=7	=7	=7	=7	=7
0r	.	0r	.	4r	.	4r	.	4r	.
.	.	.	.	4.g	L'a-	4.bnX	L'a-	4.dd	L'a-
.	.	.	.	8g	-ni-	8bni	-ni-	8dd	-ni-
.	.	.	.	4e	-ma	4cc	-ma	4cc	-ma
.	.	.	.	2f	bel-	2a	bel-	2cc	bel-
.	.	.	.	4d	-l'a	4f	-l'a	4dd	-l'a
.	.	.	.	[4c	le	[4g	le	[4ee-X	le
=8	=8	=8	=8	=8	=8	=8	=8	=8	=8
0r	.	0r	.	4c]	.	4g]	.	4ee-]	.
.	.	.	.	4B-y	sue	4b-i	sue	4dd	sue
.	.	.	.	4f	bel-	4a	bel-	4cc	bel-
.	.	.	.	4g	-le	2b-y	-le	4b-y	-le
.	.	.	.	2f	spo-	.	.	2cc	spo-
.	.	.	.	.	.	4a	spo-	.	.
.	.	.	.	2B-y	-glie,	2b-y	-glie,	2dd	-glie,
=9	=9	=9	=9	=9	=9	=9	=9	=9	=9
4BB-y	Tua	4F	Tua	4d	Tua	4b-y	Tua	4dd	Tua
4BB-y	pie-	4F	pie-	4d	pie-	4b-y	pie-	4dd	pie-
1BB-y	-ta-	1F	-ta-	1f	-ta-	1b-y	-ta-	1dd	-ta-
4AA	-t'e	4F	-t'e	4f	-t'e	4cc	-t'e	4cc	-t'e
4BB-y	mio ar-	4F	mio ar-	4f	mio ar-	4dd	mio ar-	4b-y	mio ar-
=10	=10	=10	=10	=10	=10	=10	=10	=10	=10
1F	-dir	2.A	-dir	1f	-dir	4.cc	-dir	8aL	-dir
.	.	.	.	.	.	.	.	8g	.
.	.	.	.	.	.	.	.	8a	.
.	.	.	.	.	.	8b-y	.	8b-yJ	.
.	.	.	.	.	.	4a	.	4cc	.
.	.	4F	non	.	.	4a	non	4cc	non
1r	.	8FL	ha-	1r	.	4.a	ha-	4.cc	ha-
.	.	8G	.	.	.	.	.	.	.
.	.	8A	.	.	.	.	.	.	.
.	.	8B-yJ	.	.	.	16gL	.	16b-yL	.
.	.	.	.	.	.	16fJ	.	16aJ	.
.	.	4c	.	.	.	4e	.	4g	.
.	.	4d	-vr'in	.	.	[4f	-vr'in	4f	-vr'in
=11	=11	=11	=11	=11	=11	=11	=11	=11	=11
2r	.	2.c	i-	4r	.	4f]	.	2g	i-
.	.	.	.	4.c	Ch'o-	4e	i-	.	.
4.F	Ch'o-	.	.	.	.	2f	-ra,	2a	-ra,
.	.	.	.	8A	-di'o	.	.	.	.
.	.	4F	-ra,	4d	sde-	.	.	.	.
8D	-di'o	.	.	.	.	.	.	.	.
4G	sde-	1r	.	8B-y	-gno	2r	.	4r	.
.	.	.	.	8G	là	.	.	.	.
8E	-gno	.	.	4c	su	.	.	4.cc	Ch'o-
8C	là	.	.	.	.	.	.	.	.
4F	su,	.	.	2r	.	4.f	Ch'o-	.	.
.	.	.	.	.	.	.	.	8a	-di'o
4r	.	.	.	.	.	.	.	4dd	sde-
.	.	.	.	.	.	8d	-di'o	.	.
=12	=12	=12	=12	=12	=12	=12	=12	=12	=12
2r	.	4r	.	1r	.	4g	sde-	8b-y	-gno
.	.	.	.	.	.	.	.	8g	là
.	.	4.c	Ch'o-	.	.	8e	-gno	2cc	su
.	.	.	.	.	.	8c	là	.	.
4.F	<Ch'o-	.	.	.	.	2f	su	.	.
.	.	8A	-di'o	.	.	.	.	.	.
.	.	4d	sde-	.	.	.	.	4r	.
8D	-di'o	.	.	.	.	.	.	.	.
4G	sde-	8B-y	-gno	2r	.	2r	.	2r	.
.	.	8G	là	.	.	.	.	.	.
8E	-gno	2c	su	.	.	.	.	.	.
8C	là	.	.	.	.	.	.	.	.
4F	su>	.	.	4r	.	4r	.	2f	non
4BB-y	non	4B-y	non	4f	non	4dd	non	.	.
=13	=13	=13	=13	=13	=13	=13	=13	=13	=13
2BB-y	si	2F	si	4d	si	2dd	si	2f	si
.	.	.	.	4e	rac-	.	.	.	.
2AA	rac-	2F	rac-	1f	-co-	2cc	rac-	2a	rac-
1C	-co-	1G	-co-	.	.	1cc	-co-	1g	-co-
.	.	.	.	2e	.	.	.	.	.
=14	=14	=14	=14	=14	=14	=14	=14	=14	=14
1FF	-glie.	1F	-glie.	2f	-glie.	2cc	-glie.	2a	-glie.
.	.	.	.	2f	Per	2a	Per	2cc	Per-
1r	.	1r	.	2.f	don	2.a	don	2.cc	-don
.	.	.	.	4g	el-	4g	el-	4b-y	el-
=15	=15	=15	=15	=15	=15	=15	=15	=15	=15
0r	.	0r	.	4d	-la il	4f#X	-la il	4a	-la il
.	.	.	.	4e-X	mio	4g	mio	4g	mio
.	.	.	.	2d	fal-	2f#X	fal-	2a	fal-
.	.	.	.	2d	-lo,	1f#i	-lo,	4a	-lo,
.	.	.	.	.	.	.	.	4a	e
.	.	.	.	4r	.	.	.	4.dd	sol
.	.	.	.	4d	e	.	.	.	.
.	.	.	.	.	.	.	.	8cc	.
=16	=16	=16	=16	=16	=16	=16	=16	=16	=16
0r	.	0r	.	2.g	sol	4r	.	4.b-y	.
.	.	.	.	.	.	4g	e	.	.
.	.	.	.	.	.	.	.	8a	.
.	.	.	.	.	.	2.dd	sol	8gL	.
.	.	.	.	.	.	.	.	8a	.
.	.	.	.	4g	re-	.	.	8b-y	.
.	.	.	.	.	.	.	.	8gJ	.
.	.	.	.	1f	-spi-	.	.	4a	.
.	.	.	.	.	.	4dd	re-	2b-y	re-
.	.	.	.	.	.	2cc	-spi-	.	.
.	.	.	.	.	.	.	.	4a	-spi-
=17	=17	=17	=17	=17	=17	=17	=17	=17	=17
2r	.	2r	.	2B-y	-ri	2b-y	-ri	2b-y	-ri
2BB-y	In	2B-y	In	2f	In	2dd	In	2b-y	In
2BB-y	que-	2B-y	que-	2f	que-	2dd	que-	2b-y	que-
2BB-y	-sta	2B-y	-sta	2f	-sta	2dd	-sta	2f	-sta
=18	=18	=18	=18	=18	=18	=18	=18	=18	=18
1.F	spe-	1.A	spe-	1.f	spe-	1cc	spe-	1.a	spe-
.	.	.	.	.	.	2cc	-m'il	.	.
2D	-m'il	2A	-m'il	2f	-m'il	[2dd	cor	2a	-m'il
=19	=19	=19	=19	=19	=19	=19	=19	=19	=19
2AA	cor	1A	cor	2e	cor	2dd]	.	2.a	cor
2AA	fra	.	.	1f	fra	1cc	fra	.	.
.	.	.	.	.	.	.	.	4g	.
2BB-y	tan-	1D	fra	.	.	.	.	2f	.
2BB-y	-te	.	.	[2g	tan-	[2b-y	tan-	2d	fra
=20	=20	=20	=20	=20	=20	=20	=20	=20	=20
0C	do-	2E	tan-	2g]	.	2b-]	.	2g	tan-
.	.	2F	-te	1f	-te	2a	-te	2a	-te
.	.	1G	do-	.	.	1g	do-	1cc	do-
.	.	.	.	2e	do-	.	.	.	.
=21	=21	=21	=21	=21	=21	=21	=21	=21	=21
1FF	-glie.	2F	-glie.	2f	-glie.	2a	-glie.	2cc	-glie.
.	.	2F	Sa	2f	Sa	2cc	Sa	2a	Sa
1r	.	4.c	ch'em-	4.e	ch'em-	4.cc	ch'em-	4.g	ch'em-
.	.	8A	-pia è	8f	-pia è	8cc	-pia è	8a	-pia è
.	.	4B-y	sol	4d	sol	4b-y	sol	4f	sol
.	.	4d	la	4f	la	4a	la	4f	la
=22	=22	=22	=22	=22	=22	=22	=22	=22	=22
2r	.	2c	ma-	2e	ma-	2cc	ma-	2g	ma-
2BB-y	Sa	4d	-no,	4f	-no,	2f	-no;	4b-y	-no,
.	.	4d	<Sa	4f	<Sa	.	.	4b-y	<Sa
4.F	ch'em-	4.c	ch'em-	4.f	ch'em-	1r	.	4.a	ch'em-
8D	-pia è	8d	-pia è	8f	-pia è	.	.	8b-y	-pia è
4E-i	sol	4B-y	sol	4e-X	sol	.	.	4g	sol
4G	la	4B-y	la	4d	la	.	.	4b-y	la
=23	=23	=23	=23	=23	=23	=23	=23	=23	=23
2F	ma-	2c	ma-	2f	ma-	0r	.	2a	ma-
2D	-no; e	2F	-no;> e	2f	-no;> e	.	.	2a	-no;> e
4C	non	4G	non	4e-X	non	.	.	4cc	non
4BB-y	le	4B-y	le	4d	le	.	.	4f	le
2F	no-	2A	no-	2c	no-	.	.	2f	no-
=24	=24	=24	=24	=24	=24	=24	=24	=24	=24
2BB-y	-ia	4B-y	-ia	4d	-ia	1r	.	1f	-ia
.	.	8B-y	Che,	8d	Che,	.	.	.	.
.	.	8B-y	s'a-	8d	s'a-	.	.	.	.
2r	.	4B-y	-man-	4d	-man-	.	.	.	.
.	.	8A	-do	8c	-do	.	.	.	.
.	.	8G	lei	8B-y	lei	.	.	.	.
1r	.	1F	vis-	8AL	vis-	4r	.	1r	.
.	.	.	.	8B-yJ	.	.	.	.	.
.	.	.	.	2c	.	8f	Che,	.	.
.	.	.	.	.	.	8f	s'a-	.	.
.	.	.	.	.	.	4f	-man-	.	.
.	.	.	.	[4B-y	.	8e	-do	.	.
.	.	.	.	.	.	8d	lei	.	.
=25	=25	=25	=25	=25	=25	=25	=25	=25	=25
0r	.	2F	-si,	4B-]	.	2c	vis-	2r	.
.	.	.	.	4A	.	.	.	.	.
.	.	2r	.	4B-y	-si,	4d	-si,	4r	.
.	.	.	.	4B-y	a-	8dd	<Che,	8ff	Che,
.	.	.	.	.	.	8dd	s'a-	8ff	s'a-
.	.	1r	.	4d	-man-	4dd	-man-	4ff	-man-
.	.	.	.	4e	-d'i'	8cc	-do	8ee	-do
.	.	.	.	.	.	8b-y	lei	8dd	lei
.	.	.	.	2f	mo-	2a	vis-	2cc	vis-
=26	=26	=26	=26	=26	=26	=26	=26	=26	=26
4r	.	1r	.	2B-y	-ia,	4b-y	-si,>	4dd	-si,
8B-y	Che,	.	.	.	.	4B-y	a-	8dd	<Che,
8B-y	s'a-	.	.	.	.	.	.	8dd	s'a-
4B-y	-man-	.	.	2r	.	4d	-man-	4dd	-man-
8A	-do	.	.	.	.	4e	-d'i'	8cc	-do
8G	lei	.	.	.	.	.	.	8b-y	lei
1F	vis-	4r	.	1r	.	1f	mo-	8aL	vis-
.	.	.	.	.	.	.	.	8b-yJ	.
.	.	8f	Che,	.	.	.	.	4.cc	.
.	.	8f	s'a-	.	.	.	.	.	.
.	.	4f	-man-	.	.	.	.	.	.
.	.	.	.	.	.	.	.	8b-y	.
.	.	8e	-do	.	.	.	.	[4b-y	.
.	.	8d	lei	.	.	.	.	.	.
=27	=27	=27	=27	=27	=27	=27	=27	=27	=27
2F	-si,	2c	vis-	2r	.	1f	-ia,	4b-]	.
.	.	.	.	.	.	.	.	4a	.
2BB-y	a-	4d	-si,	4r	.	.	.	2b-y	-si,>
.	.	8d	<Che,	8f	Che,	.	.	.	.
.	.	8d	s'a-	8f	s'a-	.	.	.	.
4D	-man-	4d	-man-	4f	-man-	1r	.	1r	.
4E	-d'i'	8c	-do	8e	-do	.	.	.	.
.	.	8B-y	lei	8d	lei	.	.	.	.
2F	mo-	4.A	vis-	2c	vis-	.	.	.	.
.	.	8G	.	.	.	.	.	.	.
=28	=28	=28	=28	=28	=28	=28	=28	=28	=28
4F	-ia,	8AL	.	4c	-si,	4r	.	0r	.
.	.	8B-yJ	.	.	.	.	.	.	.
8F	Che,	4c	-si,>	4F	a-	8a	Che,	.	.
8F	s'a-	.	.	.	.	8a	s'a-	.	.
4F	-man-	4F	a-	4A	-man-	4a	-man-	.	.
8E	-do	2G	-man-	4BnX	-d'i'	8g	-do	.	.
8D	lei	.	.	.	.	8f	lei	.	.
[1C	vis-	.	.	1c	mo-	8eL	vis-	.	.
.	.	.	.	.	.	8fJ	.	.	.
.	.	4G	-d'i'	.	.	4.g	.	.	.
.	.	2A	mo-	.	.	.	.	.	.
.	.	.	.	.	.	8f	.	.	.
.	.	.	.	.	.	[4f	.	.	.
=29	=29	=29	=29	=29	=29	=29	=29	=29	=29
2C]	.	2G	-ia,	2c	-ia,	4f]	.	2r	.
.	.	.	.	.	.	4e	.	.	.
2FF	-si,	4r	.	2c	a-	4f	-si,	4r	.
.	.	8F	Che,	.	.	4f	a-	8a	Che,
.	.	8F	s'a-	.	.	.	.	8a	s'a-
1r	.	4F	-man-	4c	-man-	4a	-man-	4a	-man-
.	.	8E	-do	4d	-d'i'	4bnX	-d'i'	8g	-do
.	.	8D	lei	.	.	.	.	8f	lei
.	.	2C	vis-	2e	mo-	2cc	mo-	2g	vis-
=30	=30	=30	=30	=30	=30	=30	=30	=30	=30
4r	.	2F	-si,	2f	-ia,	4cc	-ia,	4a	-si,
4FF	a-	.	.	.	.	8a	Che,	8cc	<Che,
.	.	.	.	.	.	8a	s'a-	8cc	s'a-
4AA	-man-	2r	.	2r	.	4a	-man-	4cc	-man-
4BB-y	-d'i'	.	.	.	.	8g	-do	8b-y	-do
.	.	.	.	.	.	8f	lei	8a	lei
[1C	mo-	4r	.	4r	.	4e	vis-	2g	vis-
.	.	8c	Che,	8g	Che,	4c	-si, a-	.	.
.	.	8c	s'a-	8g	s'a-	.	.	.	.
.	.	4.c	-man-	4g	-man-	4e	-man-	2cc	-si,> a-
.	.	.	.	8f	-do	4f	-d'i'	.	.
.	.	16B-y	-do	8f	lei	.	.	.	.
.	.	16A	lei	.	.	.	.	.	.
=31	=31	=31	=31	=31	=31	=31	=31	=31	=31
0C]	.	4G	vis-	4e	vis-	2.g	mo-	2.cc	-man-
.	.	4C	-si, a-	4e	-si, a-	.	.	.	.
.	.	4E	-man-	4g	-man-	.	.	.	.
.	.	4F	-d'i'	2f	-d'i'	4c	.	4a	-d'i'
.	.	1G	mo-	.	.	1cc	.	1g	mo-
.	.	.	.	8eL	mo-	.	.	.	.
.	.	.	.	8dJ	.	.	.	.	.
.	.	.	.	2e	.	.	.	.	.
=32	=32	=32	=32	=32	=32	=32	=32	=32	=32
0FFl	-ia.	0Fl	-ia.	0fl	-ia.	0ccl	-ia.	0al	-ia.
==	==	==	==	==	==	==	==	==	==
*-	*-	*-	*-	*-	*-	*-	*-	*-	*-
!!!system-decoration: [*]
!!!RDF**kern: i = editorial accidental
!!!RDF**kern: l = terminal long
!!!ENC: Emiliano Ricciardi
!!!END:
!!!EED: Ricciardi, Emiliano
!!!EEV: 2020/08/04
!!!YEC: Copyright 2020 Emiliano Ricciardi, All Rights Reserved
!!!ONB: Translated from MusicXML on 2020/08/04 and edited by Craig Stuart Sapp
!!@@BEGIN:	VERSEDATA
!!@CATALOGNUM:	Tsg12098
!!@LAST_MODIFIED: 2020/07/12
!!@TITLE:		Dalli lor tu, ché se mai gli occhi gira
!!@CANTO:		XII
!!@OTTAVA:	98
!!@MANUSRC:	G-Al, G-Am, G-Au, G-Br<sub>1</sub>, G-Br<sub>2</sub>, G-Cv, G-Es<sub>1</sub>, G-Es<sub>2</sub>, G-Es<sub>3</sub>, G-F, G-Fr, G-Fr<sub>1</sub>, G-Fr<sub>2</sub>, G-Mc, G-Mc<sub>1</sub>, G-Mg, G-Mr, G-Mt, G-N, G-Ol
!!@PRINTSRC:	G-1580CM, G-1581B, G-1581CV, G-1581R, G-1581MR, G-1581P, G-1581V, G-1581V<sub>bis</sub>, G-1582C, G-1582M, G-1582MC, G-1582P, G-1582SC, G-1582SC<sub>bis</sub>, G-1583S, G-1584O, G-1584S, G-1585C, G-1585S, G-1588S, G-1589S, G-1590B, G-1590S, G-1592S, G-1593S, G-1594C, G-1595C, G-1597C, G-1598C, G-1599C, G-1600C, G-1600S, G-1601C, G-1601R, G-1602C, G-1604C, G-1604Cl, G-1604F, G-1604P, G-1606B, G-1606B<sub>bis</sub>, G-1606L, G-1607ZR, G-1608DP, G-1609GC, G-1610M, G-1611S, G-1611V, G-1612P, G-1613M, G-1613P, G-1613V, G-1615P, G-1616M, G-1617P, G-1619B, G-1619V, G-1620M, G-1620S, G-1621R, G-1624I, G-1624MT, G-1625C, G-1625S, G-1625SS, G-1626C, G-1626Co, G-1627M, G-1628T, G-1628Tu, G-1630L, G-1630T, G-1632FT, G-1639CF, G-1642M, G-1643I, G-1644P, G-1644S
!!@@BEGIN:	VERSES
!!@ABOUTIT:
!!@ABOUTEN:
!!@EDITOR:	Angelo Solerti
!!@EDITION_TITLE: Gerusalemme liberata. Poema eroico di Torquato Tasso. Edizione critica sui manoscritti e le prime stampe.
!!@EDITION_LOC:	Florence
!!@EDITION_PUB:	G. Barbera
!!@EDITION_DATE:  1895
!!@EDITION_VOL:
!!@EDITION_PAGE:
!!@TRANSLATOR:	Emiliano Ricciardi and Amyrose McCue Gill
!!@VERSE:
!!	Dalli lor tu, ché se mai gli occhi gira
!!	L’anima bella alle sue belle spoglie;
!!	Tua pietate e mio ardir non avrà in ira,
!!	Ché odio o sdegno là su non si raccoglie.
!!	Perdona ella il mio fallo: e sol respira
!!	In questa speme il cor fra tante doglie.
!!	Sa ch’empia è sol la mano: e non l’è noia,
!!	Che s’amando lei, vissi; amando moia.
!!@MVERSE_DATE: 20230824
!!@MVERSE:
!!	Dal||li lor tu, ché se mai gli_oc||chi gi||ra			=a*
!!	L’a||ni|ma bel||la_al||le sue bel||le spo||glie;		=b
!!	Tua pie|ta||te_e mio_ar|dir|| non av|rà||_in i||ra,		=a
!!	Ché_o||dio_o sde||gno là su non si rac||co||glie.		=b
!!	Per|do||na_el||la_il mio fal||lo:_e sol re|spi||ra		=a
!!	In que||sta spe||me_il cor fra tan||te do||glie.		=b
!!	Sa ch’em||pia_è sol la ma||no:_e non l’è no||ia,		=c*	
!!	Che s’a|man||do lei, vis||si;_a|man||do mo||ia.			=c
!!@TVERSE:
!!	You give them, for if ever turns its eyes
!!	The beautiful soul to its beautiful remains;
!!	Your compassion and my courage it will not hold in ire,
!!	For hate or scorn there above are not gathered.
!!	May she pardon my fault: and the heart breathe only
!!	In this hope among so many pains.
!!	She knows that only the hand is wicked: and it is no bother to her
!!	That, if loving her, I lived; loving [her] I die.
!!@@END:		VERSES
!!@OTHER_CRIT_ED:  Torquato Tasso, <i>Gerusalemme liberata</i>, ed. Lanfranco Caretti, 2 vols. (Bari: Laterza, 1967).
!!@ATTRIBUTION_ABOUT:
!!@DATING:	mid-1560s through 1570s
!!@DEDICATEE:	Duke Alfonso II d'Este
!!@COMMENTARY:
!!@@END:		VERSEDATA
!!@@BEGIN: SETTING
!!@CATALOGNUM:	Tsg12098c
!!@CANTO:		XII
!!@OTTAVA:	98
!!@TITLE:	Dalli lor tu, ché se mai gli occhi gira
!!@SETTINGTITLE: Dagli lor tu, ché se mai gl'occhi gira
!!@COMPOSER:	Cifra, Antonio
!!@PARTS:		3 of 4
!!@PRINCEPSTITLE:	Il primo libro de madrigali a cinque voci
!!@PRINCEPSLOC:	Rome
!!@NORMLOC:	Rome
!!@NORMPUB:	Lugii Zanetti
!!@NORMPUBSHORT:	Zanetti
!!@PRINCEPSPUB:	Luigi Zanetti
!!@PRINCEPSYEAR:	1605
!!@PRINCEPSRISM:	C 2212
!!@OVOICES:	5
!!@EXTANTVOICES:	5
!!@OMENSURATION:	C
!!@OCLEFS:	C1,C1,C3,C4,F4
!!@OTIME:		
!!@OKEYSIG:	b-
!!@FINAL:		(F)
!!@TIMPEDITOR:	Ricciardi, Emiliano
!!@REPRINTS:	
!!@@END: SETTING
